!!!COM: Henri Reber
!!!CNT: Francais
!!!TXO: Francais
!!!OTL: Toi et Moi
!!!LYR: Anonymous
!!!ODT: 1863/
!!!ENC: Jacob Pegg
!!!YOR: Romantic French Song 1830-1870, David Tunley, ed., New York: Garland Publishing, Inc., 1995, vol. 3
!!NB: Vocal melody and text only encoded.
!!NB: First instance of melodic material only encoded.
**kern	**silbe
*clef G2	*
*k[f#]	*
*M6/8	*
=2	=2
{8b	{Qui
8cc	che/-
8b	-rit
4dd	L'in-
8b	-con-
=3	=3
(4g	-stan-
8a)	|
8b}	-ce?}
8r	.
{8b	{C'est
=4	=4
4a}	toi.}
8r	.
4r	.
8r	.
=5	=5
{8f#	{Qui
8g	che-
8f#	-rit
4a	ta
8a	pre-
=6	=6
(4.dd	-sen-
8f#)}	-ce?}
8r	.
{8a	{C'est
=7	=7
4g}	moi.}
8r	.
4r	.
8r	.
=8	=8
{8g	{Qui
8a	plait
8g	comme
4cc	u-
8cc	-ne
=9	=9
(4ee	ro-
8cc)	|
8g}	-se?}
8r	.
{8cc	{C'est
=10	=10
4b}	toi.}
8r	.
4r	.
8r	.
=11	=11
{8a	{Qui
8g#	vou-
8a	-drait
(16aq	bien...
16bq	|
8.cc	|
16b)	|
8a	mais
=12	=12
(4g	n'o-
8a)	|
8b}	-se?}
8r	.
{8a	{C'est
=13	=13
4g}	moi.}
8r	.
4r	.
8r	.
*-	*-
